X: 30797
T: Other Clog, The
R: polka
M: 2/4
K: Gmajor
|:BG G>A|BG G2|AD FG|AB c/B/A|
BG G>A|BG G2|AD FA|AG G2:|
|:Bd ce|dg B2|dc A2|ed B2|
Bd ce|dg B2|dc AF|G2 G2:|

